images/3235118.svg

<?xml version="1.0" encoding="UTF-8"?>
<svg xmlns="http://www.w3.org/2000/svg" xmlns:xlink="http://www.w3.org/1999/xlink" width="300pt" height="300pt" viewBox="0 0 300 300" version="1.1">
<defs>
<g>
<symbol overflow="visible" id="glyph0-0">
<path style="stroke:none;" d="M 0.59375 2.125 L 0.59375 -8.46875 L 6.59375 -8.46875 L 6.59375 2.125 Z M 1.265625 1.453125 L 5.9375 1.453125 L 5.9375 -7.78125 L 1.265625 -7.78125 Z M 1.265625 1.453125 "/>
</symbol>
<symbol overflow="visible" id="glyph0-1">
<path style="stroke:none;" d="M 1.171875 -8.75 L 2.765625 -8.75 L 6.65625 -1.4375 L 6.65625 -8.75 L 7.796875 -8.75 L 7.796875 0 L 6.203125 0 L 2.328125 -7.3125 L 2.328125 0 L 1.171875 0 Z M 1.171875 -8.75 "/>
</symbol>
<symbol overflow="visible" id="glyph0-2">
<path style="stroke:none;" d="M 4.734375 -7.953125 C 3.867188 -7.953125 3.179688 -7.628906 2.671875 -6.984375 C 2.171875 -6.347656 1.921875 -5.472656 1.921875 -4.359375 C 1.921875 -3.265625 2.171875 -2.394531 2.671875 -1.75 C 3.179688 -1.113281 3.867188 -0.796875 4.734375 -0.796875 C 5.585938 -0.796875 6.265625 -1.113281 6.765625 -1.75 C 7.273438 -2.394531 7.53125 -3.265625 7.53125 -4.359375 C 7.53125 -5.472656 7.273438 -6.347656 6.765625 -6.984375 C 6.265625 -7.628906 5.585938 -7.953125 4.734375 -7.953125 Z M 4.734375 -8.90625 C 5.953125 -8.90625 6.925781 -8.492188 7.65625 -7.671875 C 8.394531 -6.847656 8.765625 -5.742188 8.765625 -4.359375 C 8.765625 -2.984375 8.394531 -1.882812 7.65625 -1.0625 C 6.925781 -0.238281 5.953125 0.171875 4.734375 0.171875 C 3.503906 0.171875 2.519531 -0.238281 1.78125 -1.0625 C 1.039062 -1.882812 0.671875 -2.984375 0.671875 -4.359375 C 0.671875 -5.742188 1.039062 -6.847656 1.78125 -7.671875 C 2.519531 -8.492188 3.503906 -8.90625 4.734375 -8.90625 Z M 4.734375 -8.90625 "/>
</symbol>
</g>
</defs>
<g id="surface48425">
<rect x="0" y="0" width="300" height="300" style="fill:rgb(100%,100%,100%);fill-opacity:1;stroke:none;"/>
<path style="fill:none;stroke-width:1.2;stroke-linecap:butt;stroke-linejoin:miter;stroke:rgb(0%,0%,0%);stroke-opacity:1;stroke-miterlimit:10;" d="M 264.75 81.300781 L 251.402344 87.910156 "/>
<path style="fill:none;stroke-width:1.2;stroke-linecap:butt;stroke-linejoin:miter;stroke:rgb(0%,0%,100%);stroke-opacity:1;stroke-miterlimit:10;" d="M 251.402344 87.910156 L 238.054688 94.523438 "/>
<path style="fill:none;stroke-width:1.2;stroke-linecap:butt;stroke-linejoin:miter;stroke:rgb(0%,0%,100%);stroke-opacity:1;stroke-miterlimit:10;" d="M 238.054688 94.523438 L 237.105469 109.390625 "/>
<path style="fill:none;stroke-width:1.2;stroke-linecap:butt;stroke-linejoin:miter;stroke:rgb(0%,0%,0%);stroke-opacity:1;stroke-miterlimit:10;" d="M 237.105469 109.390625 L 236.160156 124.253906 "/>
<path style="fill:none;stroke-width:1.2;stroke-linecap:butt;stroke-linejoin:miter;stroke:rgb(0%,0%,0%);stroke-opacity:1;stroke-miterlimit:10;" d="M 213.253906 78.015625 L 225.652344 86.269531 "/>
<path style="fill:none;stroke-width:1.2;stroke-linecap:butt;stroke-linejoin:miter;stroke:rgb(0%,0%,100%);stroke-opacity:1;stroke-miterlimit:10;" d="M 225.652344 86.269531 L 238.054688 94.523438 "/>
<path style=" stroke:none;fill-rule:nonzero;fill:rgb(100%,100%,100%);fill-opacity:1;" d="M 234.054688 87.523438 L 243.054688 87.523438 L 243.054688 101.523438 L 234.054688 101.523438 Z M 234.054688 87.523438 "/>
<g style="fill:rgb(0%,0%,100%);fill-opacity:1;">
  <use xlink:href="#glyph0-1" x="234.054688" y="98.662109"/>
</g>
<path style="fill:none;stroke-width:1.2;stroke-linecap:butt;stroke-linejoin:miter;stroke:rgb(0%,0%,0%);stroke-opacity:1;stroke-miterlimit:10;" d="M 236.160156 124.253906 L 209.464844 137.480469 "/>
<path style="fill:none;stroke-width:1.2;stroke-linecap:butt;stroke-linejoin:miter;stroke:rgb(0%,0%,0%);stroke-opacity:1;stroke-miterlimit:10;" d="M 209.464844 137.480469 L 197.0625 129.226562 "/>
<path style="fill:none;stroke-width:1.2;stroke-linecap:butt;stroke-linejoin:miter;stroke:rgb(0%,0%,100%);stroke-opacity:1;stroke-miterlimit:10;" d="M 197.0625 129.226562 L 184.660156 120.972656 "/>
<path style="fill:none;stroke-width:1.2;stroke-linecap:butt;stroke-linejoin:miter;stroke:rgb(0%,0%,100%);stroke-opacity:1;stroke-miterlimit:10;" d="M 184.660156 120.972656 L 185.609375 106.109375 "/>
<path style="fill:none;stroke-width:1.2;stroke-linecap:butt;stroke-linejoin:miter;stroke:rgb(0%,0%,0%);stroke-opacity:1;stroke-miterlimit:10;" d="M 185.609375 106.109375 L 186.558594 91.242188 "/>
<path style="fill:none;stroke-width:1.2;stroke-linecap:butt;stroke-linejoin:miter;stroke:rgb(0%,0%,100%);stroke-opacity:1;stroke-miterlimit:10;" d="M 184.660156 120.972656 L 171.3125 127.585938 "/>
<path style="fill:none;stroke-width:1.2;stroke-linecap:butt;stroke-linejoin:miter;stroke:rgb(0%,0%,0%);stroke-opacity:1;stroke-miterlimit:10;" d="M 171.3125 127.585938 L 157.964844 134.199219 "/>
<path style=" stroke:none;fill-rule:nonzero;fill:rgb(100%,100%,100%);fill-opacity:1;" d="M 180.660156 113.972656 L 189.660156 113.972656 L 189.660156 127.972656 L 180.660156 127.972656 Z M 180.660156 113.972656 "/>
<g style="fill:rgb(0%,0%,100%);fill-opacity:1;">
  <use xlink:href="#glyph0-1" x="180.660156" y="125.111328"/>
</g>
<path style="fill:none;stroke-width:1.2;stroke-linecap:butt;stroke-linejoin:miter;stroke:rgb(0%,0%,0%);stroke-opacity:1;stroke-miterlimit:10;" d="M 186.558594 91.242188 L 213.253906 78.015625 "/>
<path style="fill:none;stroke-width:1.2;stroke-linecap:butt;stroke-linejoin:miter;stroke:rgb(0%,0%,0%);stroke-opacity:1;stroke-miterlimit:10;" d="M 157.964844 134.199219 L 145.566406 125.945312 "/>
<path style="fill:none;stroke-width:1.2;stroke-linecap:butt;stroke-linejoin:miter;stroke:rgb(0%,0%,100%);stroke-opacity:1;stroke-miterlimit:10;" d="M 145.566406 125.945312 L 133.164062 117.691406 "/>
<path style="fill:none;stroke-width:1.2;stroke-linecap:butt;stroke-linejoin:miter;stroke:rgb(0%,0%,0%);stroke-opacity:1;stroke-miterlimit:10;" d="M 151.601562 138.382812 L 141.679688 131.78125 "/>
<path style="fill:none;stroke-width:1.2;stroke-linecap:butt;stroke-linejoin:miter;stroke:rgb(0%,0%,100%);stroke-opacity:1;stroke-miterlimit:10;" d="M 141.679688 131.78125 L 131.761719 125.175781 "/>
<path style="fill:none;stroke-width:1.2;stroke-linecap:butt;stroke-linejoin:miter;stroke:rgb(0%,0%,0%);stroke-opacity:1;stroke-miterlimit:10;" d="M 156.070312 163.929688 L 157.964844 134.199219 "/>
<path style="fill:none;stroke-width:1.2;stroke-linecap:butt;stroke-linejoin:miter;stroke:rgb(0%,0%,100%);stroke-opacity:1;stroke-miterlimit:10;" d="M 133.164062 117.691406 L 119.816406 124.304688 "/>
<path style="fill:none;stroke-width:1.2;stroke-linecap:butt;stroke-linejoin:miter;stroke:rgb(0%,0%,0%);stroke-opacity:1;stroke-miterlimit:10;" d="M 119.816406 124.304688 L 106.46875 130.914062 "/>
<path style=" stroke:none;fill-rule:nonzero;fill:rgb(100%,100%,100%);fill-opacity:1;" d="M 129.164062 110.691406 L 138.164062 110.691406 L 138.164062 124.691406 L 129.164062 124.691406 Z M 129.164062 110.691406 "/>
<g style="fill:rgb(0%,0%,100%);fill-opacity:1;">
  <use xlink:href="#glyph0-1" x="129.164062" y="121.830078"/>
</g>
<path style="fill:none;stroke-width:1.2;stroke-linecap:butt;stroke-linejoin:miter;stroke:rgb(0%,0%,0%);stroke-opacity:1;stroke-miterlimit:10;" d="M 106.46875 130.914062 L 105.523438 145.78125 "/>
<path style="fill:none;stroke-width:1.2;stroke-linecap:butt;stroke-linejoin:miter;stroke:rgb(0%,0%,100%);stroke-opacity:1;stroke-miterlimit:10;" d="M 105.523438 145.78125 L 104.574219 160.648438 "/>
<path style="fill:none;stroke-width:1.2;stroke-linecap:butt;stroke-linejoin:miter;stroke:rgb(0%,0%,0%);stroke-opacity:1;stroke-miterlimit:10;" d="M 113.273438 134.335938 L 112.515625 146.226562 "/>
<path style="fill:none;stroke-width:1.2;stroke-linecap:butt;stroke-linejoin:miter;stroke:rgb(0%,0%,100%);stroke-opacity:1;stroke-miterlimit:10;" d="M 112.515625 146.226562 L 111.757812 158.121094 "/>
<path style="fill:none;stroke-width:1.2;stroke-linecap:butt;stroke-linejoin:miter;stroke:rgb(0%,0%,0%);stroke-opacity:1;stroke-miterlimit:10;" d="M 106.46875 130.914062 L 81.667969 114.410156 "/>
<path style="fill:none;stroke-width:1.2;stroke-linecap:butt;stroke-linejoin:miter;stroke:rgb(0%,0%,100%);stroke-opacity:1;stroke-miterlimit:10;" d="M 104.574219 160.648438 L 116.972656 168.902344 "/>
<path style="fill:none;stroke-width:1.2;stroke-linecap:butt;stroke-linejoin:miter;stroke:rgb(0%,0%,0%);stroke-opacity:1;stroke-miterlimit:10;" d="M 116.972656 168.902344 L 129.375 177.15625 "/>
<path style=" stroke:none;fill-rule:nonzero;fill:rgb(100%,100%,100%);fill-opacity:1;" d="M 100.574219 153.648438 L 109.574219 153.648438 L 109.574219 167.648438 L 100.574219 167.648438 Z M 100.574219 153.648438 "/>
<g style="fill:rgb(0%,0%,100%);fill-opacity:1;">
  <use xlink:href="#glyph0-1" x="100.574219" y="164.787109"/>
</g>
<path style="fill:none;stroke-width:1.2;stroke-linecap:butt;stroke-linejoin:miter;stroke:rgb(0%,0%,0%);stroke-opacity:1;stroke-miterlimit:10;" d="M 129.375 177.15625 L 127.480469 206.886719 "/>
<path style="fill:none;stroke-width:1.2;stroke-linecap:butt;stroke-linejoin:miter;stroke:rgb(0%,0%,0%);stroke-opacity:1;stroke-miterlimit:10;" d="M 136.179688 180.574219 L 134.664062 204.359375 "/>
<path style="fill:none;stroke-width:1.2;stroke-linecap:butt;stroke-linejoin:miter;stroke:rgb(0%,0%,0%);stroke-opacity:1;stroke-miterlimit:10;" d="M 156.070312 163.929688 L 129.375 177.15625 "/>
<path style="fill:none;stroke-width:1.2;stroke-linecap:butt;stroke-linejoin:miter;stroke:rgb(0%,0%,0%);stroke-opacity:1;stroke-miterlimit:10;" d="M 127.480469 206.886719 L 152.28125 223.394531 "/>
<path style="fill:none;stroke-width:1.2;stroke-linecap:butt;stroke-linejoin:miter;stroke:rgb(0%,0%,0%);stroke-opacity:1;stroke-miterlimit:10;" d="M 152.28125 223.394531 L 178.976562 210.167969 "/>
<path style="fill:none;stroke-width:1.2;stroke-linecap:butt;stroke-linejoin:miter;stroke:rgb(0%,0%,0%);stroke-opacity:1;stroke-miterlimit:10;" d="M 151.839844 215.789062 L 173.195312 205.210938 "/>
<path style="fill:none;stroke-width:1.2;stroke-linecap:butt;stroke-linejoin:miter;stroke:rgb(0%,0%,0%);stroke-opacity:1;stroke-miterlimit:10;" d="M 178.976562 210.167969 L 180.871094 180.4375 "/>
<path style="fill:none;stroke-width:1.2;stroke-linecap:butt;stroke-linejoin:miter;stroke:rgb(0%,0%,0%);stroke-opacity:1;stroke-miterlimit:10;" d="M 180.871094 180.4375 L 156.070312 163.929688 "/>
<path style="fill:none;stroke-width:1.2;stroke-linecap:butt;stroke-linejoin:miter;stroke:rgb(0%,0%,0%);stroke-opacity:1;stroke-miterlimit:10;" d="M 174.507812 184.621094 L 154.667969 171.417969 "/>
<path style="fill:none;stroke-width:1.2;stroke-linecap:butt;stroke-linejoin:miter;stroke:rgb(0%,0%,0%);stroke-opacity:1;stroke-miterlimit:10;" d="M 81.667969 114.410156 L 53.734375 124.769531 "/>
<path style="fill:none;stroke-width:1.2;stroke-linecap:butt;stroke-linejoin:miter;stroke:rgb(0%,0%,0%);stroke-opacity:1;stroke-miterlimit:10;" d="M 76.4375 108.871094 L 54.089844 117.160156 "/>
<path style="fill:none;stroke-width:1.2;stroke-linecap:butt;stroke-linejoin:miter;stroke:rgb(0%,0%,0%);stroke-opacity:1;stroke-miterlimit:10;" d="M 80.445312 84.640625 L 81.667969 114.410156 "/>
<path style="fill:none;stroke-width:1.2;stroke-linecap:butt;stroke-linejoin:miter;stroke:rgb(0%,0%,0%);stroke-opacity:1;stroke-miterlimit:10;" d="M 53.734375 124.769531 L 44.492188 113.089844 "/>
<path style="fill:none;stroke-width:1.2;stroke-linecap:butt;stroke-linejoin:miter;stroke:rgb(100%,0%,0%);stroke-opacity:1;stroke-miterlimit:10;" d="M 44.492188 113.089844 L 35.25 101.40625 "/>
<path style="fill:none;stroke-width:1.2;stroke-linecap:butt;stroke-linejoin:miter;stroke:rgb(100%,0%,0%);stroke-opacity:1;stroke-miterlimit:10;" d="M 35.25 101.40625 L 43.503906 89.007812 "/>
<path style="fill:none;stroke-width:1.2;stroke-linecap:butt;stroke-linejoin:miter;stroke:rgb(0%,0%,0%);stroke-opacity:1;stroke-miterlimit:10;" d="M 43.503906 89.007812 L 51.757812 76.605469 "/>
<path style=" stroke:none;fill-rule:nonzero;fill:rgb(100%,100%,100%);fill-opacity:1;" d="M 30.25 94.40625 L 40.25 94.40625 L 40.25 108.40625 L 30.25 108.40625 Z M 30.25 94.40625 "/>
<g style="fill:rgb(100%,0%,0%);fill-opacity:1;">
  <use xlink:href="#glyph0-2" x="30.25" y="105.544922"/>
</g>
<path style="fill:none;stroke-width:1.2;stroke-linecap:butt;stroke-linejoin:miter;stroke:rgb(0%,0%,0%);stroke-opacity:1;stroke-miterlimit:10;" d="M 51.757812 76.605469 L 80.445312 84.640625 "/>
<path style="fill:none;stroke-width:1.2;stroke-linecap:butt;stroke-linejoin:miter;stroke:rgb(0%,0%,0%);stroke-opacity:1;stroke-miterlimit:10;" d="M 52.734375 84.160156 L 75.6875 90.589844 "/>
</g>
</svg>

<svg xmlns="http://www.w3.org/2000/svg" xmlns:xlink="http://www.w3.org/1999/xlink" width="300pt" height="300pt" viewBox="0 0 300 300"><defs><symbol overflow="visible"><path d="M.594 2.125V-8.47h6V2.126zm.672-.672h4.671V-7.78h-4.67zm0 0"/></symbol><symbol overflow="visible" id="a"><path d="M1.172-8.75h1.594l3.89 7.313V-8.75h1.14V0H6.204L2.328-7.313V0H1.172zm0 0"/></symbol><symbol overflow="visible" id="b"><path d="M4.734-7.953c-.867 0-1.554.324-2.062.97-.5.635-.75 1.51-.75 2.624 0 1.094.25 1.965.75 2.61.508.637 1.195.953 2.062.953.852 0 1.532-.316 2.032-.953.507-.645.765-1.516.765-2.61 0-1.113-.257-1.988-.764-2.624-.5-.645-1.18-.97-2.032-.97zm0-.953c1.22 0 2.192.414 2.922 1.234.74.824 1.11 1.93 1.11 3.313 0 1.376-.37 2.477-1.11 3.298C6.926-.24 5.953.17 4.734.17c-1.23 0-2.214-.41-2.953-1.234C1.04-1.882.673-2.984.673-4.36c0-1.382.367-2.488 1.11-3.312.738-.82 1.722-1.234 2.952-1.234zm0 0"/></symbol></defs><g><path fill="#fff" d="M0 0h300v300H0z"/><path d="M264.75 81.3l-13.348 6.61" stroke-width="1.2" stroke="#000" stroke-miterlimit="10" fill="none"/><path d="M251.402 87.91l-13.347 6.613M238.055 94.523l-.95 14.868" stroke-width="1.2" stroke="#00f" stroke-miterlimit="10" fill="none"/><path d="M237.105 109.39l-.945 14.864M213.254 78.016l12.398 8.254" stroke-width="1.2" stroke="#000" stroke-miterlimit="10" fill="none"/><path d="M225.652 86.27l12.403 8.253" stroke-width="1.2" stroke="#00f" stroke-miterlimit="10" fill="none"/><path d="M234.055 87.523h9v14h-9zm0 0" fill="#fff"/><use xlink:href="#a" x="234.055" y="98.662" fill="#00f"/><path d="M236.16 124.254l-26.695 13.226M209.465 137.48l-12.403-8.253" stroke-width="1.2" stroke="#000" stroke-miterlimit="10" fill="none"/><path d="M197.063 129.227l-12.403-8.254M184.66 120.973l.95-14.864" stroke-width="1.2" stroke="#00f" stroke-miterlimit="10" fill="none"/><path d="M185.61 106.11l.95-14.868" stroke-width="1.2" stroke="#000" stroke-miterlimit="10" fill="none"/><path d="M184.66 120.973l-13.347 6.613" stroke-width="1.2" stroke="#00f" stroke-miterlimit="10" fill="none"/><path d="M171.313 127.586l-13.348 6.613" stroke-width="1.2" stroke="#000" stroke-miterlimit="10" fill="none"/><path d="M180.66 113.973h9v14h-9zm0 0" fill="#fff"/><use xlink:href="#a" x="180.66" y="125.111" fill="#00f"/><path d="M186.56 91.242l26.694-13.226M157.965 134.2l-12.4-8.255" stroke-width="1.2" stroke="#000" stroke-miterlimit="10" fill="none"/><path d="M145.566 125.945l-12.402-8.254" stroke-width="1.2" stroke="#00f" stroke-miterlimit="10" fill="none"/><path d="M151.602 138.383l-9.922-6.602" stroke-width="1.2" stroke="#000" stroke-miterlimit="10" fill="none"/><path d="M141.68 131.78l-9.918-6.604" stroke-width="1.2" stroke="#00f" stroke-miterlimit="10" fill="none"/><path d="M156.07 163.93l1.895-29.73" stroke-width="1.2" stroke="#000" stroke-miterlimit="10" fill="none"/><path d="M133.164 117.69l-13.348 6.615" stroke-width="1.2" stroke="#00f" stroke-miterlimit="10" fill="none"/><path d="M119.816 124.305l-13.347 6.61" stroke-width="1.2" stroke="#000" stroke-miterlimit="10" fill="none"/><path d="M129.164 110.69h9v14h-9zm0 0" fill="#fff"/><use xlink:href="#a" x="129.164" y="121.83" fill="#00f"/><path d="M106.47 130.914l-.947 14.867" stroke-width="1.2" stroke="#000" stroke-miterlimit="10" fill="none"/><path d="M105.523 145.78l-.95 14.868" stroke-width="1.2" stroke="#00f" stroke-miterlimit="10" fill="none"/><path d="M113.273 134.336l-.757 11.89" stroke-width="1.2" stroke="#000" stroke-miterlimit="10" fill="none"/><path d="M112.516 146.227l-.758 11.894" stroke-width="1.2" stroke="#00f" stroke-miterlimit="10" fill="none"/><path d="M106.47 130.914L81.667 114.41" stroke-width="1.2" stroke="#000" stroke-miterlimit="10" fill="none"/><path d="M104.574 160.648l12.4 8.254" stroke-width="1.2" stroke="#00f" stroke-miterlimit="10" fill="none"/><path d="M116.973 168.902l12.402 8.254" stroke-width="1.2" stroke="#000" stroke-miterlimit="10" fill="none"/><path d="M100.574 153.648h9v14h-9zm0 0" fill="#fff"/><use xlink:href="#a" x="100.574" y="164.787" fill="#00f"/><path d="M129.375 177.156l-1.895 29.73M136.18 180.574l-1.516 23.785M156.07 163.93l-26.695 13.226M127.48 206.887l24.8 16.508M152.28 223.395l26.697-13.227M151.84 215.79l21.355-10.58M178.977 210.168l1.894-29.73M180.87 180.438l-24.8-16.508M174.508 184.62l-19.84-13.202M81.668 114.41l-27.934 10.36M76.438 108.87l-22.348 8.29M80.445 84.64l1.223 29.77M53.734 124.77l-9.242-11.68" stroke-width="1.2" stroke="#000" stroke-miterlimit="10" fill="none"/><path d="M44.492 113.09l-9.242-11.684M35.25 101.406l8.254-12.398" stroke-width="1.2" stroke="#f00" stroke-miterlimit="10" fill="none"/><path d="M43.504 89.008l8.254-12.403" stroke-width="1.2" stroke="#000" stroke-miterlimit="10" fill="none"/><path d="M30.25 94.406h10v14h-10zm0 0" fill="#fff"/><use xlink:href="#b" x="30.25" y="105.545" fill="#f00"/><path d="M51.758 76.605l28.687 8.036M52.734 84.16l22.953 6.43" stroke-width="1.2" stroke="#000" stroke-miterlimit="10" fill="none"/></g></svg>
